X:0076
T:"The Widows Daughter"        (air)         0076
C:after Chief   F. O'Neill
C:slow
B:O'Neill's Music Of Ireland (The 1850)   Lyon & Healy, Chicago   1903 ed.
N: Substituted repeats for Segnii
Z:FROM O'NEILL'S TO NOTEWORTHY, FROM NOTEWORTHY TO ABC, MIDI AND .TXT BY VINCE BRENNAN 6-21-03 (HTTP://WWW.SOSYOURMOM.COM)
Q:1/4=70
I:abc2nwc
M:C
L:1/8
K:G
"_vb"(gf)|:(edB).c (BAG).A|B2A2A2 (3(Bcd)|e3f (gf)(e^d)|e6ef|
(gfg).a (bag).f|e6(ga)|b2(gb) (ag)(fg)|[1e6g3/2f/2:|[2e6|]
